X:822
T:Asturies, Patria Querida
R:Xiraldilla
C:Tradicional
S:Msica Tradicional Asturiana, (C) Tello & Tito. Asturies, 2001.
S:http://pagina.de/MusTradAst <telloytito@asturies.org>
A:Asturies
Z:Les cuarenta principales
M:2/2
L:1/4
Q:1/2=50
K:C
C2
|: E2 E2|F E/F/ G A/B/4A/4|G4-|G2 G2|A2 F2|A G/F/ G G/F/|[1 E4-|E2 C2 :|[2 E4-|E2 C C/C/|
|A A/G/ A A|B B/A/ G E/F/|G2 A A/G/|F D/E/ F F|G G/G/ A G/F/|E2 C C/C/|
|A A/G/ A2|B B/A/ G E/F/|G2 A A/G/|F D/E/ F F|G G/G/ A2|G2 B2|c4-|c/4 z15/4|
